X: 4388
T: POLKA
R: Polka
%R: polka
B: James Kerr "Merry Melodies" v.4 p.42 #388
Z: 2016 John Chambers <jc:trillian.mit.edu>
M: 2/4
L: 1/8
K: G
(B/c/) |\
ded>B | GBd>g | f2e2 | e^de2 |\
cdc>A | FAc>e | e2d2 | d^cd2 |\
ded>B | GBd>g | f2e2 | e2(fg) |\
aba>g | fde>f | g2[g2B2] | [g3B3] H:|
|: (A/d/) |\
f2f2 | gfe>d | f2e2 | e^de2 |\
A^ce>f | g2ga | b2a2 | agfg |\
Adfg | g2f2 | f2e2 | e^de2 |\
A^ceg | e2^c2 | d2f2 | "_D.C."d3 :|

%%sep 1 1 500
%%sep 1 1 500

